bernoullicharts/1_-_log_1_x_alt_series__mean.svg

<?xml version="1.0" encoding="utf-8" standalone="no"?>
<!DOCTYPE svg PUBLIC "-//W3C//DTD SVG 1.1//EN"
  "http://www.w3.org/Graphics/SVG/1.1/DTD/svg11.dtd">
<!-- Created with matplotlib (https://matplotlib.org/) -->
<svg height="345.6pt" version="1.1" viewBox="0 0 460.8 345.6" width="460.8pt" xmlns="http://www.w3.org/2000/svg" xmlns:xlink="http://www.w3.org/1999/xlink">
 <defs>
  <style type="text/css">
*{stroke-linecap:butt;stroke-linejoin:round;}
  </style>
 </defs>
 <g id="figure_1">
  <g id="patch_1">
   <path d="M 0 345.6 
L 460.8 345.6 
L 460.8 0 
L 0 0 
z
" style="fill:#ffffff;"/>
  </g>
  <g id="axes_1">
   <g id="patch_2">
    <path d="M 57.6 307.584 
L 414.72 307.584 
L 414.72 41.472 
L 57.6 41.472 
z
" style="fill:#ffffff;"/>
   </g>
   <g id="matplotlib.axis_1">
    <g id="xtick_1">
     <g id="line2d_1">
      <defs>
       <path d="M 0 0 
L 0 3.5 
" id="mfe0c5ef642" style="stroke:#000000;stroke-width:0.8;"/>
      </defs>
      <g>
       <use style="stroke:#000000;stroke-width:0.8;" x="73.800255" xlink:href="#mfe0c5ef642" y="307.584"/>
      </g>
     </g>
     <g id="text_1">
      <text style="font-family:DejaVu Sans;font-size:10px;font-style:normal;font-weight:normal;text-anchor:middle;" transform="rotate(-0, 73.800255, 322.182437)" x="73.800255" y="322.182437">0.0</text>
     </g>
    </g>
    <g id="xtick_2">
     <g id="line2d_2">
      <g>
       <use style="stroke:#000000;stroke-width:0.8;" x="138.744153" xlink:href="#mfe0c5ef642" y="307.584"/>
      </g>
     </g>
     <g id="text_2">
      <text style="font-family:DejaVu Sans;font-size:10px;font-style:normal;font-weight:normal;text-anchor:middle;" transform="rotate(-0, 138.744153, 322.182437)" x="138.744153" y="322.182437">0.2</text>
     </g>
    </g>
    <g id="xtick_3">
     <g id="line2d_3">
      <g>
       <use style="stroke:#000000;stroke-width:0.8;" x="203.688051" xlink:href="#mfe0c5ef642" y="307.584"/>
      </g>
     </g>
     <g id="text_3">
      <text style="font-family:DejaVu Sans;font-size:10px;font-style:normal;font-weight:normal;text-anchor:middle;" transform="rotate(-0, 203.688051, 322.182437)" x="203.688051" y="322.182437">0.4</text>
     </g>
    </g>
    <g id="xtick_4">
     <g id="line2d_4">
      <g>
       <use style="stroke:#000000;stroke-width:0.8;" x="268.631949" xlink:href="#mfe0c5ef642" y="307.584"/>
      </g>
     </g>
     <g id="text_4">
      <text style="font-family:DejaVu Sans;font-size:10px;font-style:normal;font-weight:normal;text-anchor:middle;" transform="rotate(-0, 268.631949, 322.182437)" x="268.631949" y="322.182437">0.6</text>
     </g>
    </g>
    <g id="xtick_5">
     <g id="line2d_5">
      <g>
       <use style="stroke:#000000;stroke-width:0.8;" x="333.575847" xlink:href="#mfe0c5ef642" y="307.584"/>
      </g>
     </g>
     <g id="text_5">
      <text style="font-family:DejaVu Sans;font-size:10px;font-style:normal;font-weight:normal;text-anchor:middle;" transform="rotate(-0, 333.575847, 322.182437)" x="333.575847" y="322.182437">0.8</text>
     </g>
    </g>
    <g id="xtick_6">
     <g id="line2d_6">
      <g>
       <use style="stroke:#000000;stroke-width:0.8;" x="398.519745" xlink:href="#mfe0c5ef642" y="307.584"/>
      </g>
     </g>
     <g id="text_6">
      <text style="font-family:DejaVu Sans;font-size:10px;font-style:normal;font-weight:normal;text-anchor:middle;" transform="rotate(-0, 398.519745, 322.182437)" x="398.519745" y="322.182437">1.0</text>
     </g>
    </g>
    <g id="text_7">
     <text style="font-family:DejaVu Sans;font-size:10px;font-style:normal;font-weight:normal;text-anchor:middle;" transform="rotate(-0, 236.16, 335.860562)" x="236.16" y="335.860562">Input Coin's Heads Probability (λ)</text>
    </g>
   </g>
   <g id="matplotlib.axis_2">
    <g id="ytick_1">
     <g id="line2d_7">
      <defs>
       <path d="M 0 0 
L -3.5 0 
" id="m55d28800fa" style="stroke:#000000;stroke-width:0.8;"/>
      </defs>
      <g>
       <use style="stroke:#000000;stroke-width:0.8;" x="57.6" xlink:href="#m55d28800fa" y="286.824198"/>
      </g>
     </g>
     <g id="text_8">
      <text style="font-family:DejaVu Sans;font-size:10px;font-style:normal;font-weight:normal;text-anchor:end;" transform="rotate(-0, 50.6, 290.623417)" x="50.6" y="290.623417">0.3</text>
     </g>
    </g>
    <g id="ytick_2">
     <g id="line2d_8">
      <g>
       <use style="stroke:#000000;stroke-width:0.8;" x="57.6" xlink:href="#m55d28800fa" y="253.501884"/>
      </g>
     </g>
     <g id="text_9">
      <text style="font-family:DejaVu Sans;font-size:10px;font-style:normal;font-weight:normal;text-anchor:end;" transform="rotate(-0, 50.6, 257.301103)" x="50.6" y="257.301103">0.4</text>
     </g>
    </g>
    <g id="ytick_3">
     <g id="line2d_9">
      <g>
       <use style="stroke:#000000;stroke-width:0.8;" x="57.6" xlink:href="#m55d28800fa" y="220.17957"/>
      </g>
     </g>
     <g id="text_10">
      <text style="font-family:DejaVu Sans;font-size:10px;font-style:normal;font-weight:normal;text-anchor:end;" transform="rotate(-0, 50.6, 223.978789)" x="50.6" y="223.978789">0.5</text>
     </g>
    </g>
    <g id="ytick_4">
     <g id="line2d_10">
      <g>
       <use style="stroke:#000000;stroke-width:0.8;" x="57.6" xlink:href="#m55d28800fa" y="186.857256"/>
      </g>
     </g>
     <g id="text_11">
      <text style="font-family:DejaVu Sans;font-size:10px;font-style:normal;font-weight:normal;text-anchor:end;" transform="rotate(-0, 50.6, 190.656475)" x="50.6" y="190.656475">0.6</text>
     </g>
    </g>
    <g id="ytick_5">
     <g id="line2d_11">
      <g>
       <use style="stroke:#000000;stroke-width:0.8;" x="57.6" xlink:href="#m55d28800fa" y="153.534942"/>
      </g>
     </g>
     <g id="text_12">
      <text style="font-family:DejaVu Sans;font-size:10px;font-style:normal;font-weight:normal;text-anchor:end;" transform="rotate(-0, 50.6, 157.334161)" x="50.6" y="157.334161">0.7</text>
     </g>
    </g>
    <g id="ytick_6">
     <g id="line2d_12">
      <g>
       <use style="stroke:#000000;stroke-width:0.8;" x="57.6" xlink:href="#m55d28800fa" y="120.212628"/>
      </g>
     </g>
     <g id="text_13">
      <text style="font-family:DejaVu Sans;font-size:10px;font-style:normal;font-weight:normal;text-anchor:end;" transform="rotate(-0, 50.6, 124.011847)" x="50.6" y="124.011847">0.8</text>
     </g>
    </g>
    <g id="ytick_7">
     <g id="line2d_13">
      <g>
       <use style="stroke:#000000;stroke-width:0.8;" x="57.6" xlink:href="#m55d28800fa" y="86.890314"/>
      </g>
     </g>
     <g id="text_14">
      <text style="font-family:DejaVu Sans;font-size:10px;font-style:normal;font-weight:normal;text-anchor:end;" transform="rotate(-0, 50.6, 90.689533)" x="50.6" y="90.689533">0.9</text>
     </g>
    </g>
    <g id="ytick_8">
     <g id="line2d_14">
      <g>
       <use style="stroke:#000000;stroke-width:0.8;" x="57.6" xlink:href="#m55d28800fa" y="53.568"/>
      </g>
     </g>
     <g id="text_15">
      <text style="font-family:DejaVu Sans;font-size:10px;font-style:normal;font-weight:normal;text-anchor:end;" transform="rotate(-0, 50.6, 57.367219)" x="50.6" y="57.367219">1.0</text>
     </g>
    </g>
    <g id="text_16">
     <text style="font-family:DejaVu Sans;font-size:10px;font-style:normal;font-weight:normal;text-anchor:middle;" transform="rotate(-90, 28.617187, 174.528)" x="28.617187" y="174.528">Simulated Mean / Function Value</text>
    </g>
   </g>
   <g id="line2d_15">
    <path clip-path="url(#p3e45b48b6c)" d="M 73.832727 53.601321 
L 77.112066 56.949326 
L 80.391405 60.264026 
L 83.670744 63.546079 
L 86.950083 66.79612 
L 90.229421 70.014769 
L 93.50876 73.202625 
L 96.788099 76.360273 
L 100.067438 79.488279 
L 103.346777 82.587195 
L 106.626116 85.657557 
L 109.905455 88.699887 
L 113.184793 91.714691 
L 116.464132 94.702463 
L 119.743471 97.663684 
L 123.02281 100.598822 
L 126.302149 103.508331 
L 129.581488 106.392656 
L 132.860826 109.252229 
L 136.140165 112.087471 
L 139.419504 114.898793 
L 142.698843 117.686594 
L 145.978182 120.451266 
L 149.257521 123.193188 
L 152.53686 125.912732 
L 155.816198 128.610261 
L 159.095537 131.286128 
L 162.374876 133.940679 
L 165.654215 136.574249 
L 168.933554 139.187168 
L 172.212893 141.779758 
L 175.492231 144.352333 
L 178.77157 146.905198 
L 182.050909 149.438654 
L 185.330248 151.952994 
L 188.609587 154.448504 
L 191.888926 156.925464 
L 195.168264 159.384147 
L 198.447603 161.824822 
L 201.726942 164.24775 
L 205.006281 166.653188 
L 208.28562 169.041386 
L 211.564959 171.41259 
L 214.844298 173.767039 
L 218.123636 176.104969 
L 221.402975 178.426611 
L 224.682314 180.732188 
L 227.961653 183.021923 
L 231.240992 185.296032 
L 234.520331 187.554725 
L 237.799669 189.798212 
L 241.079008 192.026695 
L 244.358347 194.240373 
L 247.637686 196.439443 
L 250.917025 198.624095 
L 254.196364 200.794517 
L 257.475702 202.950894 
L 260.755041 205.093406 
L 264.03438 207.222231 
L 267.313719 209.337541 
L 270.593058 211.439509 
L 273.872397 213.5283 
L 277.151736 215.604079 
L 280.431074 217.667007 
L 283.710413 219.717243 
L 286.989752 221.754941 
L 290.269091 223.780254 
L 293.54843 225.793332 
L 296.827769 227.794321 
L 300.107107 229.783366 
L 303.386446 231.760609 
L 306.665785 233.726188 
L 309.945124 235.680241 
L 313.224463 237.622902 
L 316.503802 239.554303 
L 319.78314 241.474574 
L 323.062479 243.383843 
L 326.341818 245.282234 
L 329.621157 247.169871 
L 332.900496 249.046875 
L 336.179835 250.913366 
L 339.459174 252.76946 
L 342.738512 254.615272 
L 346.017851 256.450917 
L 349.29719 258.276504 
L 352.576529 260.092145 
L 355.855868 261.897946 
L 359.135207 263.694014 
L 362.414545 265.480453 
L 365.693884 267.257366 
L 368.973223 269.024853 
L 372.252562 270.783015 
L 375.531901 272.531949 
L 378.81124 274.271752 
L 382.090579 276.002518 
L 385.369917 277.724341 
L 388.649256 279.437313 
L 391.928595 281.141524 
L 395.207934 282.837063 
L 398.487273 284.524019 
" style="fill:none;stroke:#1f77b4;stroke-linecap:square;stroke-width:1.5;"/>
   </g>
   <g id="line2d_16">
    <path clip-path="url(#p3e45b48b6c)" d="M 73.832727 53.568 
L 77.112066 62.231802 
L 80.391405 59.566017 
L 83.670744 60.232463 
L 86.950083 66.896926 
L 90.229421 68.896264 
L 93.50876 72.894942 
L 96.788099 78.226512 
L 100.067438 79.559405 
L 103.346777 82.891636 
L 106.626116 86.223868 
L 109.905455 87.55676 
L 113.184793 91.555438 
L 116.464132 103.551471 
L 119.743471 99.552793 
L 123.02281 96.220562 
L 126.302149 116.21395 
L 129.581488 105.55081 
L 132.860826 112.215273 
L 136.140165 106.883702 
L 139.419504 116.21395 
L 142.698843 113.548165 
L 145.978182 142.205355 
L 149.257521 120.212628 
L 152.53686 128.87643 
L 155.816198 112.215273 
L 159.095537 124.877752 
L 162.374876 128.87643 
L 165.654215 142.871802 
L 168.933554 144.87114 
L 172.212893 149.536264 
L 175.492231 138.206678 
L 178.77157 150.202711 
L 182.050909 143.538248 
L 185.330248 157.53362 
L 188.609587 156.867174 
L 191.888926 158.866512 
L 195.168264 153.534942 
L 198.447603 165.530975 
L 201.726942 175.527669 
L 205.006281 170.862545 
L 208.28562 164.864529 
L 211.564959 168.863207 
L 214.844298 174.194777 
L 218.123636 182.192132 
L 221.402975 186.19081 
L 224.682314 180.192793 
L 227.961653 182.192132 
L 231.240992 183.525025 
L 234.520331 190.189488 
L 237.799669 182.192132 
L 241.079008 194.854612 
L 244.358347 193.521719 
L 247.637686 185.524364 
L 250.917025 222.845355 
L 254.196364 203.518413 
L 257.475702 200.852628 
L 260.755041 210.849322 
L 264.03438 200.186182 
L 267.313719 207.517091 
L 270.593058 195.521058 
L 273.872397 205.517752 
L 277.151736 212.848661 
L 280.431074 219.513124 
L 283.710413 208.849983 
L 286.989752 214.848 
L 290.269091 228.843372 
L 293.54843 222.178909 
L 296.827769 224.178248 
L 300.107107 224.844694 
L 303.386446 224.178248 
L 306.665785 226.177587 
L 309.945124 240.172959 
L 313.224463 242.172298 
L 316.503802 226.844033 
L 319.78314 244.171636 
L 323.062479 249.503207 
L 326.341818 251.502545 
L 329.621157 236.174281 
L 332.900496 250.169653 
L 336.179835 244.838083 
L 339.459174 248.83676 
L 342.738512 266.83081 
L 346.017851 256.834116 
L 349.29719 260.832793 
L 352.576529 264.165025 
L 355.855868 259.499901 
L 359.135207 260.832793 
L 362.414545 271.495934 
L 365.693884 260.832793 
L 368.973223 256.167669 
L 372.252562 272.828826 
L 375.531901 266.164364 
L 378.81124 280.826182 
L 382.090579 279.493289 
L 385.369917 276.827504 
L 388.649256 281.492628 
L 391.928595 279.493289 
L 395.207934 291.489322 
L 398.487273 295.488 
" style="fill:none;stroke:#ff7f0e;stroke-linecap:square;stroke-width:1.5;"/>
   </g>
   <g id="patch_3">
    <path d="M 57.6 307.584 
L 57.6 41.472 
" style="fill:none;stroke:#000000;stroke-linecap:square;stroke-linejoin:miter;stroke-width:0.8;"/>
   </g>
   <g id="patch_4">
    <path d="M 414.72 307.584 
L 414.72 41.472 
" style="fill:none;stroke:#000000;stroke-linecap:square;stroke-linejoin:miter;stroke-width:0.8;"/>
   </g>
   <g id="patch_5">
    <path d="M 57.6 307.584 
L 414.72 307.584 
" style="fill:none;stroke:#000000;stroke-linecap:square;stroke-linejoin:miter;stroke-width:0.8;"/>
   </g>
   <g id="patch_6">
    <path d="M 57.6 41.472 
L 414.72 41.472 
" style="fill:none;stroke:#000000;stroke-linecap:square;stroke-linejoin:miter;stroke-width:0.8;"/>
   </g>
   <g id="text_17">
    <text style="font-family:DejaVu Sans;font-size:12px;font-style:normal;font-weight:normal;" transform="translate(71.23125 22.034625)">Simulated Mean for 1 - log(1+x) (Alt. Series) Algorithm</text>
    <text style="font-family:DejaVu Sans;font-size:12px;font-style:normal;font-weight:normal;" transform="translate(132.609375 35.472)">(Wasserstein Distances in Legend)</text>
   </g>
   <g id="legend_1">
    <g id="patch_7">
     <path d="M 229.47 78.82825 
L 407.72 78.82825 
Q 409.72 78.82825 409.72 76.82825 
L 409.72 48.472 
Q 409.72 46.472 407.72 46.472 
L 229.47 46.472 
Q 227.47 46.472 227.47 48.472 
L 227.47 76.82825 
Q 227.47 78.82825 229.47 78.82825 
z
" style="fill:#ffffff;opacity:0.8;stroke:#cccccc;stroke-linejoin:miter;"/>
    </g>
    <g id="line2d_17">
     <path d="M 231.47 54.570437 
L 251.47 54.570437 
" style="fill:none;stroke:#1f77b4;stroke-linecap:square;stroke-width:1.5;"/>
    </g>
    <g id="line2d_18"/>
    <g id="text_18">
     <text style="font-family:DejaVu Sans;font-size:10px;font-style:normal;font-weight:normal;text-anchor:start;" transform="rotate(-0, 259.47, 58.070437)" x="259.47" y="58.070437">1 - log(1+x)</text>
    </g>
    <g id="line2d_19">
     <path d="M 231.47 69.248562 
L 251.47 69.248562 
" style="fill:none;stroke:#ff7f0e;stroke-linecap:square;stroke-width:1.5;"/>
    </g>
    <g id="line2d_20"/>
    <g id="text_19">
     <text style="font-family:DejaVu Sans;font-size:10px;font-style:normal;font-weight:normal;text-anchor:start;" transform="rotate(-0, 259.47, 72.748562)" x="259.47" y="72.748562">Simul. Mean (WD=0.005938)</text>
    </g>
   </g>
  </g>
 </g>
 <defs>
  <clipPath id="p3e45b48b6c">
   <rect height="266.112" width="357.12" x="57.6" y="41.472"/>
  </clipPath>
 </defs>
</svg>

<svg height="460.8" viewBox="0 0 460.8 345.6" width="614.4" xmlns="http://www.w3.org/2000/svg" xmlns:xlink="http://www.w3.org/1999/xlink"><defs><style>*{stroke-linecap:butt;stroke-linejoin:round}</style></defs><g id="figure_1"><path d="M0 345.6h460.8V0H0z" fill="#fff" id="patch_1"/><g id="axes_1"><path d="M57.6 307.584h357.12V41.472H57.6z" fill="#fff" id="patch_2"/><g id="matplotlib.axis_1"><g id="xtick_1"><g id="line2d_1"><defs><path d="M0 0v3.5" id="mfe0c5ef642" stroke="#000" stroke-width=".8"/></defs><use x="73.8" xlink:href="#mfe0c5ef642" y="307.584" stroke="#000" stroke-width=".8"/></g><text x="73.8" y="322.182" font-family="DejaVu Sans" font-size="10" font-weight="400" text-anchor="middle" id="text_1">0.0</text></g><g id="xtick_2"><use x="138.744" xlink:href="#mfe0c5ef642" y="307.584" stroke="#000" stroke-width=".8" id="line2d_2"/><text x="138.744" y="322.182" font-family="DejaVu Sans" font-size="10" font-weight="400" text-anchor="middle" id="text_2">0.2</text></g><g id="xtick_3"><use x="203.688" xlink:href="#mfe0c5ef642" y="307.584" stroke="#000" stroke-width=".8" id="line2d_3"/><text x="203.688" y="322.182" font-family="DejaVu Sans" font-size="10" font-weight="400" text-anchor="middle" id="text_3">0.4</text></g><g id="xtick_4"><use x="268.632" xlink:href="#mfe0c5ef642" y="307.584" stroke="#000" stroke-width=".8" id="line2d_4"/><text x="268.632" y="322.182" font-family="DejaVu Sans" font-size="10" font-weight="400" text-anchor="middle" id="text_4">0.6</text></g><g id="xtick_5"><use x="333.576" xlink:href="#mfe0c5ef642" y="307.584" stroke="#000" stroke-width=".8" id="line2d_5"/><text x="333.576" y="322.182" font-family="DejaVu Sans" font-size="10" font-weight="400" text-anchor="middle" id="text_5">0.8</text></g><g id="xtick_6"><use x="398.52" xlink:href="#mfe0c5ef642" y="307.584" stroke="#000" stroke-width=".8" id="line2d_6"/><text x="398.52" y="322.182" font-family="DejaVu Sans" font-size="10" font-weight="400" text-anchor="middle" id="text_6">1.0</text></g><text x="236.16" y="335.861" font-family="DejaVu Sans" font-size="10" font-weight="400" text-anchor="middle" id="text_7">Input Coin&apos;s Heads Probability (λ)</text></g><g id="matplotlib.axis_2"><g id="ytick_1"><g id="line2d_7"><defs><path d="M0 0h-3.5" id="m55d28800fa" stroke="#000" stroke-width=".8"/></defs><use x="57.6" xlink:href="#m55d28800fa" y="286.824" stroke="#000" stroke-width=".8"/></g><text x="50.6" y="290.623" font-family="DejaVu Sans" font-size="10" font-weight="400" text-anchor="end" id="text_8">0.3</text></g><g id="ytick_2"><use x="57.6" xlink:href="#m55d28800fa" y="253.502" stroke="#000" stroke-width=".8" id="line2d_8"/><text x="50.6" y="257.301" font-family="DejaVu Sans" font-size="10" font-weight="400" text-anchor="end" id="text_9">0.4</text></g><g id="ytick_3"><use x="57.6" xlink:href="#m55d28800fa" y="220.18" stroke="#000" stroke-width=".8" id="line2d_9"/><text x="50.6" y="223.979" font-family="DejaVu Sans" font-size="10" font-weight="400" text-anchor="end" id="text_10">0.5</text></g><g id="ytick_4"><use x="57.6" xlink:href="#m55d28800fa" y="186.857" stroke="#000" stroke-width=".8" id="line2d_10"/><text x="50.6" y="190.656" font-family="DejaVu Sans" font-size="10" font-weight="400" text-anchor="end" id="text_11">0.6</text></g><g id="ytick_5"><use x="57.6" xlink:href="#m55d28800fa" y="153.535" stroke="#000" stroke-width=".8" id="line2d_11"/><text x="50.6" y="157.334" font-family="DejaVu Sans" font-size="10" font-weight="400" text-anchor="end" id="text_12">0.7</text></g><g id="ytick_6"><use x="57.6" xlink:href="#m55d28800fa" y="120.213" stroke="#000" stroke-width=".8" id="line2d_12"/><text x="50.6" y="124.012" font-family="DejaVu Sans" font-size="10" font-weight="400" text-anchor="end" id="text_13">0.8</text></g><g id="ytick_7"><use x="57.6" xlink:href="#m55d28800fa" y="86.89" stroke="#000" stroke-width=".8" id="line2d_13"/><text x="50.6" y="90.69" font-family="DejaVu Sans" font-size="10" font-weight="400" text-anchor="end" id="text_14">0.9</text></g><g id="ytick_8"><use x="57.6" xlink:href="#m55d28800fa" y="53.568" stroke="#000" stroke-width=".8" id="line2d_14"/><text x="50.6" y="57.367" font-family="DejaVu Sans" font-size="10" font-weight="400" text-anchor="end" id="text_15">1.0</text></g><text transform="rotate(-90 28.617 174.528)" x="28.617" y="174.528" font-family="DejaVu Sans" font-size="10" font-weight="400" text-anchor="middle" id="text_16">Simulated Mean / Function Value</text></g><path clip-path="url(#p3e45b48b6c)" d="M73.833 53.601l3.28 3.348 3.278 3.315 3.28 3.282 3.28 3.25 3.278 3.219 3.28 3.188 3.28 3.157 3.278 3.128 3.28 3.1 3.28 3.07 3.278 3.042 3.28 3.015 3.28 2.987 3.278 2.962 3.28 2.935 3.28 2.91 3.278 2.884 3.28 2.86 3.28 2.834 3.279 2.812 3.279 2.788 3.28 2.764 3.279 2.742 3.279 2.72 3.28 2.697 3.279 2.676 3.279 2.655 3.28 2.633 3.279 2.613 3.279 2.593 3.28 2.572 3.279 2.553 3.279 2.534 3.28 2.514 3.279 2.496 3.279 2.476 3.28 2.46 3.279 2.44 3.279 2.423 3.28 2.405 3.279 2.388 3.279 2.372 3.28 2.354 3.279 2.338 3.279 2.322 3.28 2.305 3.279 2.29 3.279 2.274 3.28 2.259 3.279 2.243 3.279 2.229 3.28 2.213 3.279 2.2 3.279 2.184 3.28 2.17 3.279 2.157 3.279 2.142 3.28 2.13 3.279 2.115 3.28 2.102 3.278 2.088 3.28 2.076 3.28 2.063 3.278 2.05 3.28 2.038 3.28 2.025 3.278 2.013 3.28 2.001 3.28 1.99 3.278 1.977 3.28 1.965 3.28 1.954 3.278 1.943 3.28 1.931 3.28 1.92 3.278 1.91 3.28 1.898 3.28 1.888 3.278 1.877 3.28 1.866 3.28 1.856 3.279 1.846 3.279 1.836 3.28 1.826 3.279 1.815 3.279 1.806 3.28 1.796 3.279 1.786 3.279 1.777 3.28 1.768 3.279 1.758 3.279 1.749 3.28 1.74 3.279 1.73 3.279 1.722 3.28 1.713 3.279 1.705 3.279 1.695 3.28 1.687" fill="none" stroke="#1f77b4" stroke-linecap="square" stroke-width="1.5" id="line2d_15"/><path clip-path="url(#p3e45b48b6c)" d="M73.833 53.568l3.28 8.664 3.278-2.666 3.28.666 3.28 6.665 3.278 2 3.28 3.998 3.28 5.332 3.278 1.332 3.28 3.333 3.28 3.332 3.278 1.333 3.28 3.998 3.28 11.996 3.278-3.998 3.28-3.332 3.28 19.993 3.278-10.663 3.28 6.664 3.28-5.331 3.279 9.33 3.279-2.666 3.28 28.657 3.279-21.992 3.279 8.663 3.28-16.66 3.279 12.662 3.279 3.998 3.28 13.996 3.279 2 3.279 4.664 3.28-11.33 3.279 11.997 3.279-6.665 3.28 13.996 3.279-.667 3.279 2 3.28-5.332 3.279 11.996 3.279 9.997 3.28-4.665 3.279-5.998 3.279 3.998 3.28 5.332 3.279 7.997 3.279 3.999 3.28-5.998 3.279 2 3.279 1.332 3.28 6.664 3.279-7.997 3.279 12.663 3.28-1.333 3.279-7.998 3.279 37.321 3.28-19.327 3.279-2.665 3.279 9.996 3.28-10.663 3.279 7.331 3.28-11.996 3.278 9.997 3.28 7.33 3.28 6.665 3.278-10.663 3.28 5.998 3.28 13.995 3.278-6.664 3.28 2 3.28.666 3.278-.667 3.28 2 3.28 13.995 3.278 2 3.28-15.329 3.28 17.328 3.278 5.331 3.28 2 3.28-15.329 3.278 13.996 3.28-5.332 3.28 3.999 3.279 17.994 3.279-9.997 3.28 3.999 3.279 3.332 3.279-4.665 3.28 1.333 3.279 10.663 3.279-10.663 3.28-4.665 3.279 16.66 3.279-6.664 3.28 14.662 3.279-1.333 3.279-2.665 3.28 4.665 3.279-2 3.279 11.996 3.28 3.999" fill="none" stroke="#ff7f0e" stroke-linecap="square" stroke-width="1.5" id="line2d_16"/><path d="M57.6 307.584V41.472" fill="none" stroke="#000" stroke-linecap="square" stroke-width=".8" id="patch_3"/><path d="M414.72 307.584V41.472" fill="none" stroke="#000" stroke-linecap="square" stroke-width=".8" id="patch_4"/><path d="M57.6 307.584h357.12" fill="none" stroke="#000" stroke-linecap="square" stroke-width=".8" id="patch_5"/><path d="M57.6 41.472h357.12" fill="none" stroke="#000" stroke-linecap="square" stroke-width=".8" id="patch_6"/><g id="text_17" font-family="DejaVu Sans" font-size="12" font-weight="400"><text transform="translate(71.231 22.035)">Simulated Mean for 1 - log(1+x) (Alt. Series) Algorithm</text><text transform="translate(132.61 35.472)">(Wasserstein Distances in Legend)</text></g><g id="legend_1"><path d="M229.47 78.828h178.25q2 0 2-2V48.472q0-2-2-2H229.47q-2 0-2 2v28.356q0 2 2 2z" fill="#fff" opacity=".8" stroke="#ccc" id="patch_7"/><path d="M231.47 54.57h20" fill="none" stroke="#1f77b4" stroke-linecap="square" stroke-width="1.5" id="line2d_17"/><text x="259.47" y="58.07" font-family="DejaVu Sans" font-size="10" font-weight="400" id="text_18">1 - log(1+x)</text><path d="M231.47 69.249h20" fill="none" stroke="#ff7f0e" stroke-linecap="square" stroke-width="1.5" id="line2d_19"/><text x="259.47" y="72.749" font-family="DejaVu Sans" font-size="10" font-weight="400" id="text_19">Simul. Mean (WD=0.005938)</text></g></g></g><defs><clipPath id="p3e45b48b6c"><path d="M57.6 41.472h357.12v266.112H57.6z"/></clipPath></defs></svg>
